shorty/img/actions/external.svg

<?xml version="1.0" encoding="UTF-8" standalone="no"?>
<svg xmlns:rdf="http://www.w3.org/1999/02/22-rdf-syntax-ns#" xmlns="http://www.w3.org/2000/svg" height="9.6pt" width="9.6pt" version="1.1" xmlns:cc="http://creativecommons.org/ns#" xmlns:dc="http://purl.org/dc/elements/1.1/">
 <title>external</title>
 <rect transform="translate(1.5 4.5)" height="4.8pt" width="4.8pt" stroke="#585858" fill="#fff"/>
 <path d="m1.25 1.5l1 1 0.25 0.75-2.5 2.25 2.75 2.75 2.25-2.5 0.75 0.25 1 1 1.5-1.5v-5.5h-5.5z" fill-rule="evenodd" fill="#303030" transform="translate(2.75 1)"/>
 <path d="m2 0h4v4l-0.5 0.75-1.25-2-3 3.25-1.25-1.25 3.25-3-2-1.25z" fill-rule="evenodd" fill="#fff" transform="translate(4 2)"/>
</svg>

<?xml version="1.0" encoding="UTF-8" standalone="no"?>
<!-- Created using Karbon, part of Calligra: http://www.calligra.org/karbon -->

<svg
   xmlns:dc="http://purl.org/dc/elements/1.1/"
   xmlns:cc="http://creativecommons.org/ns#"
   xmlns:rdf="http://www.w3.org/1999/02/22-rdf-syntax-ns#"
   xmlns:svg="http://www.w3.org/2000/svg"
   xmlns="http://www.w3.org/2000/svg"
   xmlns:sodipodi="http://sodipodi.sourceforge.net/DTD/sodipodi-0.dtd"
   xmlns:inkscape="http://www.inkscape.org/namespaces/inkscape"
   width="9.6pt"
   height="9.6pt"
   id="svg3163"
   version="1.1"
   inkscape:version="0.48.3.1 r9886"
   sodipodi:docname="external.svg">
  <title
     id="title3277">external</title>
  <metadata
     id="metadata3173">
    <rdf:RDF>
      <cc:Work
         rdf:about="">
        <dc:format>image/svg+xml</dc:format>
        <dc:type
           rdf:resource="http://purl.org/dc/dcmitype/StillImage" />
        <cc:license
           rdf:resource="http://creativecommons.org/licenses/by-nc-sa/3.0/" />
        <dc:title>external</dc:title>
        <dc:rights>
          <cc:Agent>
            <dc:title>Copyright 2012, Christian Reiner, Hamburg, Germany</dc:title>
          </cc:Agent>
        </dc:rights>
        <dc:creator>
          <cc:Agent>
            <dc:title>Christian Reiner</dc:title>
          </cc:Agent>
        </dc:creator>
        <dc:publisher>
          <cc:Agent>
            <dc:title>Christian Reiner</dc:title>
          </cc:Agent>
        </dc:publisher>
        <dc:subject>
          <rdf:Bag>
            <rdf:li>external</rdf:li>
            <rdf:li>action</rdf:li>
          </rdf:Bag>
        </dc:subject>
      </cc:Work>
      <cc:License
         rdf:about="http://creativecommons.org/licenses/by-nc-sa/3.0/">
        <cc:permits
           rdf:resource="http://creativecommons.org/ns#Reproduction" />
        <cc:permits
           rdf:resource="http://creativecommons.org/ns#Distribution" />
        <cc:requires
           rdf:resource="http://creativecommons.org/ns#Notice" />
        <cc:requires
           rdf:resource="http://creativecommons.org/ns#Attribution" />
        <cc:prohibits
           rdf:resource="http://creativecommons.org/ns#CommercialUse" />
        <cc:permits
           rdf:resource="http://creativecommons.org/ns#DerivativeWorks" />
        <cc:requires
           rdf:resource="http://creativecommons.org/ns#ShareAlike" />
      </cc:License>
    </rdf:RDF>
  </metadata>
  <sodipodi:namedview
     pagecolor="#ffffff"
     bordercolor="#666666"
     borderopacity="1"
     objecttolerance="10"
     gridtolerance="10"
     guidetolerance="10"
     inkscape:pageopacity="0"
     inkscape:pageshadow="2"
     inkscape:window-width="1920"
     inkscape:window-height="1114"
     id="namedview3171"
     showgrid="false"
     inkscape:zoom="19.666667"
     inkscape:cx="-14.084746"
     inkscape:cy="6.0000001"
     inkscape:window-x="-4"
     inkscape:window-y="-4"
     inkscape:window-maximized="1"
     inkscape:current-layer="svg3163" />
  <defs
     id="defs3165" />
  <g
     id="defitem0">
    <rect
       id="rect"
       transform="translate(1.5, 4.5)"
       fill="#ffffff"
       stroke="#585858"
       stroke-width="1.00000000000"
       stroke-linecap="butt"
       stroke-linejoin="miter"
       stroke-miterlimit="4.00000000000"
       width="4.80000000000pt"
       height="4.80000000000pt" />
    <path
       id="arrow"
       transform="translate(2.75, 1)"
       fill="#303030"
       fill-rule="evenodd"
       d="M1.25 1.5L2.25 2.5L2.5 3.25L0 5.5L2.75 8.25L5 5.75L5.75 6L6.75 7L8.25 5.5L8.25 0L2.75 0Z" />
    <path
       id="gap"
       transform="translate(4, 2)"
       fill="#ffffff"
       fill-rule="evenodd"
       d="M2 0L6 0L6 4L5.5 4.75L4.25 2.75L1.25 6L0 4.75L3.25 1.75L1.25 0.5Z" />
  </g>
</svg>
